addons/godot-flexbox/assets/light/AlignItemsBaselineColumnIcon.svg

<svg xmlns="http://www.w3.org/2000/svg" width="16" height="16" fill="none" data-wf-icon="AlignItemsBaselineColumnIcon" viewBox="0 0 24 24"><path fill="#474747" fill-rule="evenodd" d="M12 0h-1.5v4.5h-6v6h6V12h-6v6h6v6H12v-6h3v-6h-3v-1.5h6v-6h-6V0Zm-1.5 16.5v-3H6v3h4.5Zm0-7.5V6H6v3h4.5Z" clip-rule="evenodd"/></svg>

<svg data-wf-icon="AlignItemsBaselineColumnIcon" width="16" height="16" viewBox="0 0 24 24" fill="none" xmlns="http://www.w3.org/2000/svg"><path fill-rule="evenodd" clip-rule="evenodd" d="M12 0H10.5V4.5H4.5V10.5H10.5V12H4.5V18H10.5V24H12V18H15V12H12V10.5H18V4.5H12V0ZM10.5 16.5V13.5H6V16.5H10.5ZM10.5 9V6H6V9H10.5Z" fill="#474747"></path></svg>
